assets/img/ods/SDG-1.svg

<svg width="720" height="720" viewBox="0 0 720 720" fill="none" xmlns="http://www.w3.org/2000/svg">
<g clip-path="url(#clip0_342_38)">
<path d="M-0.109863 -1.08H720.11V721.08H-0.109863V-1.08Z" fill="#BBBBBB"/>
<path d="M50.9999 88.93C46.9199 91.14 35.1899 94.37 31.1099 96.41V76.86C36.5499 74.65 51.6799 67.34 56.7799 61.73H77.3199V199.43H50.9999V88.93ZM146.79 61.63H168.9V68.39H156.35V83.53H166.23V90.23H156.35V107.71H169V114.28H146.79V61.63ZM173.31 61.63H186C196.53 61.63 202.51 65.01 202.51 75.63C202.51 81.94 200.95 86.36 196.01 88.37L203.35 114.31H193.73L187.43 90.19H182.88V114.31H173.32L173.31 61.63ZM185.92 84.18C191.45 84.18 193.46 81.78 193.46 76.12C193.46 70.79 191.97 68.19 186.46 68.19H182.89V84.19L185.92 84.18ZM208.48 61.63H221.15C231.68 61.63 237.67 65.01 237.67 75.63C237.67 81.94 236.1 86.36 231.16 88.37L238.51 114.31H228.89L222.58 90.19H218V114.31H208.45L208.48 61.63ZM221.09 84.18C226.61 84.18 228.63 81.78 228.63 76.12C228.63 70.79 227.13 68.19 221.63 68.19H218V84.19L221.09 84.18ZM251.51 61.63H261.78L272.31 114.28H263.4L261.32 102.12H252.16L250 114.28H241L251.51 61.63ZM260.28 96L256.71 73.9L253.13 96H260.28ZM276.27 61.63H288.69C301.49 61.63 305.39 66.76 305.39 78.01V97.18C305.39 108.75 301.39 114.28 289.08 114.28H276.27V61.63ZM288.82 107.58C295.38 107.58 295.64 104.07 295.64 97.51V77.36C295.64 71.05 294.99 68.45 288.69 68.45H285.83V107.58H288.82ZM311.44 61.63H320.93V114.28H311.44V61.63ZM326.91 97.44V78.66C326.91 67.87 330.35 61.04 341.91 61.04C352.7 61.04 356.15 67.04 356.15 76.19V80.61H346.92V76.06C346.92 71.64 346.85 68.06 341.98 68.06C337.11 68.06 336.58 71.83 336.58 76.64V99.46C336.58 105.18 337.75 107.91 341.98 107.91C346.72 107.91 346.92 104.2 346.92 99.52V94.78H356.15V99C356.15 108.3 353.03 115 341.91 115C330.35 115 326.91 107.71 326.91 97.44ZM369.42 61.63H379.69L390.22 114.28H381.31L379.23 102.12H370.07L367.92 114.28H358.92L369.42 61.63ZM378.19 96L374.62 73.9L371 96H378.19ZM413 80.61V76.06C413 71.64 412.94 68.06 408.06 68.06C403.18 68.06 402.67 71.83 402.67 76.64V99.46C402.67 105.18 403.84 107.91 408.06 107.91C412.81 107.91 413 104.2 413 99.52V94.78H422.23V99C422.23 107.91 419.37 114.47 409.3 115V118.25C414.11 118.25 417.36 120.4 417.36 124.43C417.36 129.04 413.26 130.99 408.52 130.99C406.934 130.974 405.359 130.735 403.84 130.28V126.18C404.976 126.534 406.16 126.709 407.35 126.7C409.62 126.7 411.35 126.05 411.35 124.3C411.35 121.96 408.69 121.11 405.63 120.79V114.87C396.01 113.87 393.02 106.94 393.02 97.45V78.66C393 67.87 396.46 61 408 61C418.79 61 422.23 67 422.23 76.15V80.57L413 80.61ZM435.52 61.63H445.79L456.32 114.28H447.42L445.34 102.12H436.17L434 114.28H425L435.52 61.63ZM437.52 51.63C435.82 51.63 435.24 52.63 435.24 54.3H430.69C430.69 49.62 431.99 46.11 436.22 46.11C439.4 46.11 441.55 49.11 444.34 49.11C445.84 49.11 446.42 48.2 446.42 46.51H450.71C450.71 50.6 450 54.7 445.77 54.7C442.41 54.74 440.2 51.68 437.54 51.68L437.52 51.63ZM444.3 96L440.72 73.9L437.15 96H444.3ZM458.92 97.77V78C458.92 67.34 462.82 61 474.13 61C485.44 61 489.28 67.31 489.28 78V97.77C489.28 108.36 485.38 114.99 474.13 114.99C462.88 114.99 458.92 108.43 458.92 97.77ZM479.53 100V75.8C479.53 71.38 478.81 68.06 474.13 68.06C469.45 68.06 468.67 71.38 468.67 75.8V100C468.67 104.36 469.38 107.87 474.13 107.87C478.88 107.87 479.53 104.4 479.53 100ZM146.79 147.63H159.21C172.02 147.63 175.92 152.76 175.92 164.01V183.18C175.92 194.75 171.92 200.28 159.6 200.28H146.79V147.63ZM159.34 193.63C165.91 193.63 166.17 190.12 166.17 183.56V163.36C166.17 157.05 165.52 154.45 159.17 154.45H156.31V193.58L159.34 193.63ZM189.17 147.63H199.44L210 200.28H201.09L199 188.12H189.83L187.69 200.28H178.69L189.17 147.63ZM198 182L194.43 159.9L190.8 182H198ZM228.43 147.63H243.9C253.33 147.63 257.36 153.09 257.36 162.63C257.36 172.96 251.77 176.93 243.25 176.93H238V200.33H228.44L228.43 147.63ZM241.69 170.12C246.96 170.12 248.32 168.12 248.32 162.51C248.32 156.9 247.61 154.39 241.69 154.39H238V170.12H241.69ZM260.54 183.77V164C260.54 153.34 264.44 147 275.75 147C287.06 147 290.9 153.31 290.9 164V183.76C290.9 194.35 287 200.98 275.75 200.98C264.5 200.98 260.54 194.43 260.54 183.77ZM281.15 186V161.8C281.15 157.38 280.43 154.06 275.75 154.06C271.07 154.06 270.29 157.38 270.29 161.8V186C270.29 190.36 271.01 193.87 275.75 193.87C280.49 193.87 281.15 190.4 281.15 186ZM296.68 147.63H309.68C318.91 147.63 325.09 150.75 325.09 161.15C325.09 167.58 322.42 171.15 317.48 171.94C323.66 173.11 326.58 177.53 326.58 184.94C326.58 195.01 321.64 200.28 311.89 200.28H296.68V147.63ZM309.55 169.14C315.27 169.14 316.77 166.61 316.77 161.28C316.77 155.69 314.04 154.28 308.19 154.28H306.24V169.1L309.55 169.14ZM309.94 193.52C315.79 193.52 317.42 190.79 317.42 184.87C317.42 178.63 315.34 175.77 309.62 175.77H306.24V193.52H309.94ZM331.59 147.63H344.26C354.79 147.63 360.77 151.01 360.77 161.63C360.77 167.94 359.21 172.36 354.27 174.37L361.62 200.31H352L345.69 176.19H341.14V200.31H331.59V147.63ZM344.2 170.18C349.72 170.18 351.74 167.78 351.74 162.12C351.74 156.79 350.24 154.19 344.74 154.19H341.16V170.19L344.2 170.18ZM366.75 147.63H388.85V154.39H376.31V169.53H386.19V176.23H376.31V193.71H389V200.28H366.75V147.63ZM391.51 194.1L405.62 154.26H392.23V147.63H415.31V152.57L400.62 193.71H415.37V200.28H391.51V194.1ZM427.46 147.63H437.73L448.26 200.28H439.36L437.28 188.12H428.11L426 200.28H417L427.46 147.63ZM436.24 182L432.66 159.9L429.08 182H436.24ZM556 343.38C556 339.409 557.177 335.528 559.383 332.226C561.588 328.925 564.723 326.351 568.391 324.83C572.059 323.31 576.095 322.911 579.99 323.684C583.885 324.458 587.462 326.368 590.271 329.174C593.081 331.98 594.995 335.557 595.772 339.45C596.549 343.344 596.154 347.381 594.637 351.05C593.12 354.72 590.55 357.857 587.25 360.066C583.951 362.275 580.07 363.456 576.1 363.46C573.462 363.461 570.849 362.943 568.411 361.935C565.973 360.926 563.758 359.447 561.891 357.583C560.025 355.718 558.544 353.504 557.533 351.067C556.522 348.63 556.001 346.018 556 343.38ZM599.51 371.21C606.159 371.821 612.339 374.896 616.837 379.831C621.335 384.765 623.825 391.203 623.82 397.88V453.56C623.748 455.576 622.896 457.486 621.444 458.887C619.992 460.288 618.053 461.071 616.035 461.071C614.017 461.071 612.078 460.288 610.626 458.887C609.174 457.486 608.322 455.576 608.25 453.56V405.74C608.25 403.95 607.73 401.52 604.45 401.52C602.19 401.52 601.71 403.92 601.63 405.45V548.77C601.543 551.681 600.325 554.444 598.235 556.472C596.145 558.501 593.347 559.635 590.435 559.635C587.522 559.635 584.724 558.501 582.634 556.472C580.544 554.444 579.327 551.681 579.24 548.77V466.18C579.281 465.748 579.228 465.313 579.085 464.904C578.942 464.495 578.712 464.121 578.411 463.81C578.109 463.498 577.744 463.255 577.34 463.098C576.936 462.941 576.503 462.873 576.07 462.9C575.635 462.878 575.201 462.948 574.795 463.106C574.389 463.263 574.021 463.505 573.715 463.815C573.41 464.124 573.173 464.495 573.02 464.903C572.867 465.31 572.803 465.746 572.83 466.18V548.77C572.83 551.735 571.652 554.579 569.555 556.675C567.459 558.772 564.615 559.95 561.65 559.95C558.685 559.95 555.841 558.772 553.744 556.675C551.648 554.579 550.47 551.735 550.47 548.77V405.45C550.4 403.92 549.91 401.52 547.66 401.52C544.36 401.52 543.86 403.95 543.86 405.74V453.56C543.788 455.576 542.936 457.486 541.484 458.887C540.032 460.288 538.093 461.071 536.075 461.071C534.057 461.071 532.118 460.288 530.666 458.887C529.214 457.486 528.362 455.576 528.29 453.56V397.88C528.287 391.199 530.783 384.758 535.287 379.824C539.79 374.889 545.976 371.816 552.63 371.21C553.117 371.136 553.608 371.096 554.1 371.09H598C598.509 371.097 599.016 371.137 599.52 371.21M436.54 353.93C436.54 350.172 435.426 346.499 433.338 343.374C431.25 340.25 428.283 337.814 424.811 336.376C421.339 334.938 417.519 334.562 413.833 335.295C410.147 336.028 406.762 337.838 404.105 340.495C401.448 343.152 399.638 346.538 398.905 350.223C398.172 353.909 398.548 357.729 399.986 361.201C401.424 364.673 403.859 367.64 406.984 369.728C410.109 371.816 413.782 372.93 417.54 372.93C422.579 372.93 427.412 370.928 430.975 367.365C434.538 363.802 436.54 358.969 436.54 353.93ZM379.21 397L363.4 448.47C363.4 448.47 360.59 457.91 368.59 460.26C376.59 462.61 379 453.41 379 453.41L391.75 410.41C391.75 410.41 392.44 407.1 394.92 407.82C397.4 408.54 396.48 412.07 396.48 412.07L374.29 492.56H394.92V550.22C394.92 552.848 395.964 555.369 397.822 557.227C399.681 559.086 402.202 560.13 404.83 560.13C407.458 560.13 409.979 559.086 411.837 557.227C413.696 555.369 414.74 552.848 414.74 550.22V492.61H420.37V550.27C420.37 552.898 421.414 555.419 423.272 557.277C425.131 559.136 427.652 560.18 430.28 560.18C432.908 560.18 435.429 559.136 437.287 557.277C439.146 555.419 440.19 552.898 440.19 550.27V492.61H460.82L438.65 412.12C438.65 412.12 437.71 408.58 440.19 407.87C442.67 407.16 443.37 410.46 443.37 410.46L456.12 453.46C456.12 453.46 458.54 462.67 466.49 460.31C474.44 457.95 471.68 448.52 471.68 448.52L455.84 397C455.84 397 450.2 382.12 437.68 382.12H397.38C384.87 382.12 379.21 397 379.21 397ZM322.63 353.93C322.63 350.172 321.516 346.499 319.428 343.374C317.34 340.25 314.373 337.814 310.901 336.376C307.429 334.938 303.609 334.562 299.923 335.295C296.238 336.028 292.852 337.838 290.195 340.495C287.538 343.152 285.728 346.538 284.995 350.223C284.262 353.909 284.638 357.729 286.076 361.201C287.514 364.673 289.95 367.64 293.074 369.728C296.199 371.816 299.872 372.93 303.63 372.93C308.669 372.93 313.502 370.928 317.065 367.365C320.628 363.802 322.63 358.969 322.63 353.93ZM265.3 397L249.5 448.46C249.5 448.46 246.67 457.9 254.68 460.25C262.69 462.6 265.05 453.4 265.05 453.4L277.8 410.4C277.8 410.4 278.5 407.09 280.98 407.81C283.46 408.53 282.53 412.06 282.53 412.06L260.35 492.55H281V550.21C281 552.838 282.044 555.359 283.902 557.217C285.761 559.076 288.282 560.12 290.91 560.12C293.538 560.12 296.059 559.076 297.917 557.217C299.776 555.359 300.82 552.838 300.82 550.21V492.61H306.45V550.27C306.45 552.898 307.494 555.419 309.352 557.277C311.211 559.136 313.732 560.18 316.36 560.18C318.988 560.18 321.509 559.136 323.367 557.277C325.226 555.419 326.27 552.898 326.27 550.27V492.61H346.9L324.73 412.12C324.73 412.12 323.79 408.58 326.27 407.87C328.75 407.16 329.45 410.46 329.45 410.46L342.18 453.46C342.18 453.46 344.61 462.67 352.57 460.31C360.53 457.95 357.75 448.52 357.75 448.52L341.92 397C341.92 397 336.29 382.12 323.77 382.12H283.47C271 382.13 265.3 397 265.3 397ZM500.41 460.37C503.54 460.37 506.6 459.442 509.203 457.703C511.807 455.964 513.836 453.492 515.034 450.6C516.232 447.708 516.546 444.526 515.936 441.455C515.326 438.385 513.82 435.564 511.607 433.35C509.394 431.136 506.574 429.627 503.504 429.015C500.434 428.403 497.252 428.716 494.359 429.912C491.466 431.109 488.993 433.136 487.253 435.738C485.512 438.34 484.582 441.4 484.58 444.53C484.576 446.61 484.983 448.671 485.777 450.594C486.571 452.517 487.736 454.264 489.207 455.736C490.678 457.207 492.424 458.374 494.347 459.169C496.269 459.965 498.329 460.373 500.41 460.37ZM462.46 509.55C461.68 511.4 461.05 515.33 464.76 517.04C469.12 519.04 471.55 514.83 471.55 514.83L480.15 487.38C480.15 487.38 481.65 485.55 481.65 487.45V552.05C481.65 554.204 482.505 556.269 484.028 557.792C485.551 559.314 487.616 560.17 489.77 560.17C491.923 560.17 493.989 559.314 495.512 557.792C497.034 556.269 497.89 554.204 497.89 552.05V526.56C497.89 526.56 497.42 522.95 500.32 522.95C503.22 522.95 502.78 526.56 502.78 526.56V552.05C502.78 554.209 503.637 556.279 505.164 557.806C506.691 559.332 508.761 560.19 510.92 560.19C513.079 560.19 515.149 559.332 516.676 557.806C518.202 556.279 519.06 554.209 519.06 552.05V487.45C519.06 485.55 520.06 486.9 520.06 486.9L526.8 505.69C526.8 505.69 529.73 514.09 530.63 514.46C531.358 514.763 532.139 514.92 532.927 514.922C533.716 514.923 534.498 514.769 535.227 514.468C535.956 514.167 536.618 513.725 537.177 513.168C537.735 512.61 538.178 511.949 538.48 511.22C538.879 510.283 539.029 509.259 538.917 508.246C538.805 507.234 538.434 506.267 537.84 505.44V505.38C537.65 504.77 527.76 480.53 526.6 477.12C523.03 466.7 516.53 466.79 510.28 466.62C504.03 466.45 500.28 466.62 500.28 466.62C500.28 466.62 496.28 466.46 488.02 466.7C479.76 466.94 477.17 471.19 468.02 494.6C466.72 497.97 462.33 508.88 462.27 509.54L462.46 509.55ZM152.78 343.38C152.78 339.409 151.603 335.528 149.397 332.226C147.192 328.925 144.057 326.351 140.389 324.83C136.721 323.31 132.684 322.911 128.79 323.684C124.895 324.458 121.317 326.368 118.508 329.174C115.699 331.98 113.785 335.557 113.008 339.45C112.231 343.344 112.626 347.381 114.143 351.05C115.659 354.72 118.23 357.857 121.529 360.066C124.829 362.275 128.709 363.456 132.68 363.46C135.318 363.461 137.931 362.943 140.369 361.935C142.807 360.926 145.022 359.447 146.889 357.583C148.755 355.718 150.236 353.504 151.247 351.067C152.258 348.63 152.779 346.018 152.78 343.38ZM109.23 371.21C102.581 371.823 96.4009 374.899 91.9018 379.832C87.4027 384.766 84.9091 391.203 84.9099 397.88V453.56C84.9099 455.626 85.7306 457.607 87.1915 459.068C88.6524 460.529 90.6338 461.35 92.6999 461.35C94.7659 461.35 96.7473 460.529 98.2082 459.068C99.6691 457.607 100.49 455.626 100.49 453.56V405.74C100.49 403.95 101.01 401.52 104.29 401.52C106.56 401.52 107.03 403.92 107.12 405.45V548.77C107.12 551.735 108.298 554.579 110.394 556.675C112.491 558.772 115.335 559.95 118.3 559.95C121.265 559.95 124.109 558.772 126.205 556.675C128.302 554.579 129.48 551.735 129.48 548.77V466.18C129.45 465.748 129.511 465.315 129.66 464.909C129.81 464.503 130.043 464.133 130.345 463.823C130.647 463.513 131.011 463.271 131.414 463.112C131.816 462.953 132.248 462.881 132.68 462.9C133.114 462.876 133.549 462.945 133.954 463.102C134.36 463.259 134.727 463.501 135.032 463.812C135.336 464.122 135.571 464.494 135.721 464.902C135.871 465.311 135.932 465.746 135.9 466.18V548.77C135.855 550.267 136.111 551.758 136.653 553.154C137.195 554.55 138.012 555.823 139.055 556.898C140.098 557.973 141.346 558.827 142.725 559.41C144.105 559.994 145.587 560.295 147.085 560.295C148.583 560.295 150.065 559.994 151.444 559.41C152.824 558.827 154.072 557.973 155.115 556.898C156.158 555.823 156.975 554.55 157.516 553.154C158.058 551.758 158.315 550.267 158.27 548.77V405.45C158.33 403.92 158.84 401.52 161.09 401.52C164.39 401.52 164.88 403.95 164.88 405.74V453.56C164.952 455.576 165.804 457.486 167.256 458.887C168.708 460.288 170.647 461.071 172.665 461.071C174.683 461.071 176.622 460.288 178.074 458.887C179.526 457.486 180.378 455.576 180.45 453.56V397.88C180.455 391.2 177.962 384.759 173.459 379.824C168.957 374.889 162.772 371.817 156.12 371.21C155.633 371.136 155.142 371.096 154.65 371.09H110.75C110.238 371.096 109.727 371.136 109.22 371.21" fill="white"/>
<path d="M73.8899 560.46C73.6213 560.458 73.3535 560.431 73.0899 560.38C71.9747 560.169 70.989 559.524 70.3495 558.586C69.7101 557.648 69.4692 556.495 69.6799 555.38L87.5199 460.85C87.6116 460.288 87.8149 459.75 88.1177 459.268C88.4205 458.785 88.8167 458.368 89.283 458.042C89.7493 457.715 90.2763 457.484 90.833 457.364C91.3896 457.244 91.9647 457.236 92.5243 457.342C93.084 457.447 93.6169 457.663 94.0917 457.978C94.5665 458.292 94.9736 458.698 95.2891 459.173C95.6045 459.647 95.822 460.179 95.9286 460.739C96.0352 461.298 96.0289 461.873 95.9099 462.43L78.0799 557C77.89 557.973 77.3685 558.849 76.6044 559.48C75.8403 560.111 74.8809 560.458 73.8899 560.46ZM190 452.08C189.338 451.023 188.351 450.209 187.188 449.76C186.025 449.31 184.747 449.25 183.546 449.588C182.346 449.926 181.287 450.644 180.529 451.634C179.771 452.624 179.353 453.833 179.34 455.08C179.424 455.947 179.615 456.8 179.91 457.62L195.91 486.5C196.486 487.694 196.825 488.987 196.91 490.31V552.31C196.91 554.376 197.731 556.357 199.192 557.818C200.652 559.279 202.634 560.1 204.7 560.1C206.766 560.1 208.747 559.279 210.208 557.818C211.669 556.357 212.49 554.376 212.49 552.31V527.89C212.49 527.89 212.05 524.43 214.85 524.43C217.65 524.43 217.2 527.89 217.2 527.89V552.36C217.2 554.431 218.023 556.418 219.487 557.882C220.952 559.347 222.939 560.17 225.01 560.17C227.081 560.17 229.068 559.347 230.532 557.882C231.997 556.418 232.82 554.431 232.82 552.36V490.36C232.905 489.037 233.244 487.744 233.82 486.55L248.57 459.88C248.57 459.88 250.37 456.05 250.37 455.13C250.365 453.603 249.754 452.141 248.673 451.063C247.591 449.985 246.127 449.38 244.6 449.38C243.622 449.375 242.66 449.622 241.805 450.097C240.951 450.571 240.233 451.258 239.72 452.09H239.65C239.19 452.49 231.8 465.65 229.37 468.09C226.78 470.68 224.48 470.4 224.48 470.4H205.24C205.24 470.4 202.91 470.68 200.34 468.09C197.77 465.5 190.52 452.49 190.05 452.09L190 452.08Z" fill="white"/>
<path d="M214.82 460.37C217.951 460.372 221.012 459.445 223.616 457.708C226.22 455.97 228.251 453.499 229.451 450.607C230.651 447.715 230.966 444.533 230.357 441.461C229.749 438.39 228.243 435.569 226.03 433.354C223.818 431.138 220.998 429.629 217.928 429.016C214.857 428.403 211.674 428.715 208.781 429.911C205.888 431.107 203.414 433.135 201.673 435.737C199.932 438.339 199.002 441.399 199 444.53C198.997 446.61 199.405 448.67 200.199 450.592C200.994 452.515 202.159 454.262 203.63 455.733C205.1 457.204 206.846 458.371 208.768 459.167C210.69 459.962 212.75 460.371 214.83 460.37M214.84 482.59L232.74 495.64L241.24 526.95H188.43L196.95 495.64L214.84 482.59Z" fill="white"/>
</g>
<defs>
<clipPath id="clip0_342_38">
<rect width="720" height="720" fill="white"/>
</clipPath>
</defs>
</svg>

<svg xmlns="http://www.w3.org/2000/svg" viewBox="0 0 720 720"><defs><style>.cls-2{fill:#fff}</style></defs><path fill="#e5243b" d="M-.11-1.08h720.22v722.16H-.11z" id="goal_background" data-name="goal background"/><g id="ENG_text_graphics" data-name="ENG text &amp; graphics"><path class="cls-2" d="M51 88.93c-4.08 2.21-15.81 5.44-19.89 7.48V76.86c5.44-2.21 20.57-9.52 25.67-15.13h20.54v137.7H51zM146.79 61.63h22.11v6.76h-12.55v15.14h9.88v6.7h-9.88v17.48H169v6.57h-22.21zM173.31 61.63H186c10.53 0 16.51 3.38 16.51 14 0 6.31-1.56 10.73-6.5 12.74l7.34 25.94h-9.62l-6.3-24.12h-4.55v24.12h-9.56zm12.61 22.55c5.53 0 7.54-2.4 7.54-8.06 0-5.33-1.49-7.93-7-7.93h-3.57v16zM208.48 61.63h12.67c10.53 0 16.52 3.38 16.52 14 0 6.31-1.57 10.73-6.51 12.74l7.35 25.94h-9.62l-6.31-24.12H218v24.12h-9.55zm12.61 22.55c5.52 0 7.54-2.4 7.54-8.06 0-5.33-1.5-7.93-7-7.93H218v16zM251.51 61.63h10.27l10.53 52.65h-8.91l-2.08-12.16h-9.16L250 114.28h-9zM260.28 96l-3.57-22.1-3.58 22.1zM276.27 61.63h12.42c12.8 0 16.7 5.13 16.7 16.38v19.17c0 11.57-4 17.1-16.31 17.1h-12.81zm12.55 45.95c6.56 0 6.82-3.51 6.82-10.07V77.36c0-6.31-.65-8.91-6.95-8.91h-2.86v39.13zM311.44 61.63h9.49v52.65h-9.49zM326.91 97.44V78.66c0-10.79 3.44-17.62 15-17.62 10.79 0 14.24 6 14.24 15.15v4.42h-9.23v-4.55c0-4.42-.07-8-4.94-8s-5.4 3.77-5.4 8.58v22.82c0 5.72 1.17 8.45 5.4 8.45 4.74 0 4.94-3.71 4.94-8.39v-4.74h9.23V99c0 9.3-3.12 16-14.24 16-11.56 0-15-7.29-15-17.56zM369.42 61.63h10.27l10.53 52.65h-8.91l-2.08-12.16h-9.16l-2.15 12.16h-9zM378.19 96l-3.57-22.1L371 96zM413 80.61v-4.55c0-4.42-.06-8-4.94-8s-5.39 3.77-5.39 8.58v22.82c0 5.72 1.17 8.45 5.39 8.45 4.75 0 4.94-3.71 4.94-8.39v-4.74h9.23V99c0 8.91-2.86 15.47-12.93 16v3.25c4.81 0 8.06 2.15 8.06 6.18 0 4.61-4.1 6.56-8.84 6.56a16.87 16.87 0 01-4.68-.71v-4.1a11.51 11.51 0 003.51.52c2.27 0 4-.65 4-2.4 0-2.34-2.66-3.19-5.72-3.51v-5.92c-9.62-1-12.61-7.93-12.61-17.42V78.66C393 67.87 396.46 61 408 61c10.79 0 14.23 6 14.23 15.15v4.42zM435.52 61.63h10.27l10.53 52.65h-8.9l-2.08-12.16h-9.17L434 114.28h-9zm2-10c-1.7 0-2.28 1-2.28 2.67h-4.55c0-4.68 1.3-8.19 5.53-8.19 3.18 0 5.33 3 8.12 3 1.5 0 2.08-.91 2.08-2.6h4.29c0 4.09-.71 8.19-4.94 8.19-3.36.04-5.57-3.02-8.23-3.02zM444.3 96l-3.58-22.1-3.57 22.1zM458.92 97.77V78c0-10.66 3.9-17 15.21-17s15.15 6.31 15.15 17v19.77c0 10.59-3.9 17.22-15.15 17.22s-15.21-6.56-15.21-17.22zm20.61 2.23V75.8c0-4.42-.72-7.74-5.4-7.74s-5.46 3.32-5.46 7.74V100c0 4.36.71 7.87 5.46 7.87s5.4-3.47 5.4-7.87zM146.79 147.63h12.42c12.81 0 16.71 5.13 16.71 16.38v19.17c0 11.57-4 17.1-16.32 17.1h-12.81zm12.55 46c6.57 0 6.83-3.51 6.83-10.07v-20.2c0-6.31-.65-8.91-7-8.91h-2.86v39.13zM189.17 147.63h10.27L210 200.28h-8.91L199 188.12h-9.17l-2.14 12.16h-9zM198 182l-3.57-22.1-3.63 22.1zM228.43 147.63h15.47c9.43 0 13.46 5.46 13.46 15 0 10.33-5.59 14.3-14.11 14.3H238v23.4h-9.56zm13.26 22.49c5.27 0 6.63-2 6.63-7.61s-.71-8.12-6.63-8.12H238v15.73zM260.54 183.77V164c0-10.66 3.9-17 15.21-17s15.15 6.31 15.15 17v19.76c0 10.59-3.9 17.22-15.15 17.22s-15.21-6.55-15.21-17.21zm20.61 2.23v-24.2c0-4.42-.72-7.74-5.4-7.74s-5.46 3.32-5.46 7.74V186c0 4.36.72 7.87 5.46 7.87s5.4-3.47 5.4-7.87zM296.68 147.63h13c9.23 0 15.41 3.12 15.41 13.52 0 6.43-2.67 10-7.61 10.79 6.18 1.17 9.1 5.59 9.1 13 0 10.07-4.94 15.34-14.69 15.34h-15.21zm12.87 21.51c5.72 0 7.22-2.53 7.22-7.86 0-5.59-2.73-7-8.58-7h-1.95v14.82zm.39 24.38c5.85 0 7.48-2.73 7.48-8.65 0-6.24-2.08-9.1-7.8-9.1h-3.38v17.75zM331.59 147.63h12.67c10.53 0 16.51 3.38 16.51 14 0 6.31-1.56 10.73-6.5 12.74l7.35 25.94H352l-6.31-24.12h-4.55v24.12h-9.55zm12.61 22.55c5.52 0 7.54-2.4 7.54-8.06 0-5.33-1.5-7.93-7-7.93h-3.58v16zM366.75 147.63h22.1v6.76h-12.54v15.14h9.88v6.7h-9.88v17.48H389v6.57h-22.25zM391.51 194.1l14.11-39.84h-13.39v-6.63h23.08v4.94l-14.69 41.14h14.75v6.57h-23.86zM427.46 147.63h10.27l10.53 52.65h-8.9l-2.08-12.16h-9.17L426 200.28h-9zm8.78 34.37l-3.58-22.1-3.58 22.1zM556 343.38a20.08 20.08 0 1120.1 20.08 20.09 20.09 0 01-20.1-20.08M599.51 371.21a26.76 26.76 0 0124.31 26.67v55.68a7.79 7.79 0 01-15.57 0v-47.82c0-1.79-.52-4.22-3.8-4.22-2.26 0-2.74 2.4-2.82 3.93v143.32a11.2 11.2 0 01-22.39 0v-82.59a3 3 0 00-3.17-3.28 3.09 3.09 0 00-3.24 3.28v82.59a11.18 11.18 0 11-22.36 0V405.45c-.07-1.53-.56-3.93-2.81-3.93-3.3 0-3.8 2.43-3.8 4.22v47.82a7.79 7.79 0 01-15.57 0v-55.68a26.77 26.77 0 0124.34-26.67 10.79 10.79 0 011.47-.12H598a11.58 11.58 0 011.52.12M436.54 353.93a19 19 0 10-19 19 19 19 0 0019-19M379.21 397l-15.81 51.47s-2.81 9.44 5.19 11.79 10.41-6.85 10.41-6.85l12.75-43s.69-3.31 3.17-2.59 1.56 4.25 1.56 4.25l-22.19 80.49h20.63v57.66a9.91 9.91 0 0019.82 0v-57.61h5.63v57.66a9.91 9.91 0 0019.82 0v-57.66h20.63l-22.17-80.49s-.94-3.54 1.54-4.25 3.18 2.59 3.18 2.59l12.75 43s2.42 9.21 10.37 6.85 5.19-11.79 5.19-11.79L455.84 397s-5.64-14.88-18.16-14.88h-40.3c-12.51 0-18.17 14.88-18.17 14.88M322.63 353.93a19 19 0 10-19 19 19 19 0 0019-19M265.3 397l-15.8 51.46s-2.83 9.44 5.18 11.79 10.37-6.85 10.37-6.85l12.75-43s.7-3.31 3.18-2.59 1.55 4.25 1.55 4.25l-22.18 80.49H281v57.66a9.91 9.91 0 0019.82 0v-57.6h5.63v57.66a9.91 9.91 0 0019.82 0v-57.66h20.63l-22.17-80.49s-.94-3.54 1.54-4.25 3.18 2.59 3.18 2.59l12.73 43s2.43 9.21 10.39 6.85 5.18-11.79 5.18-11.79L341.92 397s-5.63-14.88-18.15-14.88h-40.3C271 382.13 265.3 397 265.3 397M500.41 460.37a15.83 15.83 0 10-15.83-15.84 15.81 15.81 0 0015.83 15.84M462.46 509.55c-.78 1.85-1.41 5.78 2.3 7.49 4.36 2 6.79-2.21 6.79-2.21l8.6-27.45s1.5-1.83 1.5.07v64.6a8.12 8.12 0 0016.24 0v-25.49s-.47-3.61 2.43-3.61 2.46 3.61 2.46 3.61v25.49a8.14 8.14 0 0016.28 0v-64.6c0-1.9 1-.55 1-.55l6.74 18.79s2.93 8.4 3.83 8.77a6 6 0 007.85-3.24 5.93 5.93 0 00-.64-5.78v-.06c-.19-.61-10.08-24.85-11.24-28.26-3.57-10.42-10.07-10.33-16.32-10.5s-10 0-10 0-4-.16-12.26.08-10.85 4.49-20 27.9c-1.3 3.37-5.69 14.28-5.75 14.94zM152.78 343.38a20.08 20.08 0 10-20.1 20.08 20.09 20.09 0 0020.1-20.08M109.23 371.21a26.78 26.78 0 00-24.32 26.67v55.68a7.79 7.79 0 0015.58 0v-47.82c0-1.79.52-4.22 3.8-4.22 2.27 0 2.74 2.4 2.83 3.93v143.32a11.18 11.18 0 1022.36 0v-82.59a3.07 3.07 0 013.2-3.28 3.06 3.06 0 013.22 3.28v82.59a11.19 11.19 0 1022.37 0V405.45c.06-1.53.57-3.93 2.82-3.93 3.3 0 3.79 2.43 3.79 4.22v47.82a7.79 7.79 0 0015.57 0v-55.68a26.76 26.76 0 00-24.33-26.67 10.79 10.79 0 00-1.47-.12h-43.9a11.46 11.46 0 00-1.53.12"/><path class="cls-2" d="M73.89 560.46a4.34 4.34 0 01-.8-.08 4.28 4.28 0 01-3.41-5l17.84-94.53a4.27 4.27 0 118.39 1.58L78.08 557a4.28 4.28 0 01-4.19 3.46zM190 452.08a5.77 5.77 0 00-10.66 3 10.51 10.51 0 00.57 2.54l16 28.88a10.28 10.28 0 011 3.81v62a7.79 7.79 0 1015.58 0v-24.42s-.44-3.46 2.36-3.46 2.35 3.46 2.35 3.46v24.47a7.81 7.81 0 0015.62 0v-62a10.28 10.28 0 011-3.81l14.75-26.67s1.8-3.83 1.8-4.75a5.77 5.77 0 00-5.77-5.75 5.7 5.7 0 00-4.88 2.71h-.07c-.46.4-7.85 13.56-10.28 16-2.59 2.59-4.89 2.31-4.89 2.31h-19.24s-2.33.28-4.9-2.31-9.82-15.6-10.29-16z"/><path class="cls-2" d="M214.82 460.37A15.83 15.83 0 10199 444.53a15.82 15.82 0 0015.83 15.84M214.84 482.59l17.9 13.05 8.5 31.31h-52.81l8.52-31.31 17.89-13.05z"/></g></svg>
